48x48/apps/Nextcloud.svg

<svg xmlns="http://www.w3.org/2000/svg" width="48" height="48" version="1"><circle style="opacity:.2" cx="24" cy="25" r="20"/><circle style="fill:#008dda" cx="24" cy="24" r="20"/><path style="opacity:.2" d="M24 17a8 8 0 0 0-7.62 5.59A5 5 0 0 0 12 20a5 5 0 0 0-5 5 5 5 0 0 0 5 5 5 5 0 0 0 4.375-2.592A8 8 0 0 0 24 33a8 8 0 0 0 7.62-5.59A5 5 0 0 0 36 30a5 5 0 0 0 5-5 5 5 0 0 0-5-5 5 5 0 0 0-4.375 2.592A8 8 0 0 0 24 17zm0 3a5 5 0 0 1 5 5 5 5 0 0 1-5 5 5 5 0 0 1-5-5 5 5 0 0 1 5-5zm-12 3a2 2 0 0 1 2 2 2 2 0 0 1-2 2 2 2 0 0 1-2-2 2 2 0 0 1 2-2zm24 0a2 2 0 0 1 2 2 2 2 0 0 1-2 2 2 2 0 0 1-2-2 2 2 0 0 1 2-2z"/><path style="fill:#f4f4f7" d="M24 16a8 8 0 0 0-8 8 8 8 0 0 0 8 8 8 8 0 0 0 8-8 8 8 0 0 0-8-8zm0 3a5 5 0 0 1 5 5 5 5 0 0 1-5 5 5 5 0 0 1-5-5 5 5 0 0 1 5-5z"/><path style="fill:#f4f4f7" d="M12 19a5 5 0 0 0-5 5 5 5 0 0 0 5 5 5 5 0 0 0 5-5 5 5 0 0 0-5-5zm0 3a2 2 0 0 1 2 2 2 2 0 0 1-2 2 2 2 0 0 1-2-2 2 2 0 0 1 2-2zM36 19a5 5 0 0 0-5 5 5 5 0 0 0 5 5 5 5 0 0 0 5-5 5 5 0 0 0-5-5zm0 3a2 2 0 0 1 2 2 2 2 0 0 1-2 2 2 2 0 0 1-2-2 2 2 0 0 1 2-2z"/><path style="opacity:.2;fill:#f4f4f7" d="M24 4A20 20 0 0 0 4 24a20 20 0 0 0 .021.582A20 20 0 0 1 24 5a20 20 0 0 1 19.979 19.418A20 20 0 0 0 44 24 20 20 0 0 0 24 4z"/></svg>

<svg xmlns="http://www.w3.org/2000/svg" width="48" height="48" version="1">
 <circle style="opacity:0.2" cx="24" cy="25" r="20"/>
 <circle style="fill:#008dda" cx="24" cy="24" r="20"/>
 <path style="opacity:0.2" d="M 24,17 A 8,8 0 0 0 16.380859,22.589844 5,5 0 0 0 12,20 5,5 0 0 0 7,25 5,5 0 0 0 12,30 5,5 0 0 0 16.375,27.408203 8,8 0 0 0 24,33 8,8 0 0 0 31.619141,27.410156 5,5 0 0 0 36,30 5,5 0 0 0 41,25 5,5 0 0 0 36,20 5,5 0 0 0 31.625,22.591797 8,8 0 0 0 24,17 Z m 0,3 a 5,5 0 0 1 5,5 5,5 0 0 1 -5,5 5,5 0 0 1 -5,-5 5,5 0 0 1 5,-5 z m -12,3 a 2,2 0 0 1 2,2 2,2 0 0 1 -2,2 2,2 0 0 1 -2,-2 2,2 0 0 1 2,-2 z m 24,0 a 2,2 0 0 1 2,2 2,2 0 0 1 -2,2 2,2 0 0 1 -2,-2 2,2 0 0 1 2,-2 z"/>
 <path style="fill:#f4f4f7" d="M 24 16 A 8 8 0 0 0 16 24 A 8 8 0 0 0 24 32 A 8 8 0 0 0 32 24 A 8 8 0 0 0 24 16 z M 24 19 A 5 5 0 0 1 29 24 A 5 5 0 0 1 24 29 A 5 5 0 0 1 19 24 A 5 5 0 0 1 24 19 z"/>
 <path style="fill:#f4f4f7" d="M 12 19 A 5 5 0 0 0 7 24 A 5 5 0 0 0 12 29 A 5 5 0 0 0 17 24 A 5 5 0 0 0 12 19 z M 12 22 A 2 2 0 0 1 14 24 A 2 2 0 0 1 12 26 A 2 2 0 0 1 10 24 A 2 2 0 0 1 12 22 z"/>
 <path style="fill:#f4f4f7" d="m 36,19 a 5,5 0 0 0 -5,5 5,5 0 0 0 5,5 5,5 0 0 0 5,-5 5,5 0 0 0 -5,-5 z m 0,3 a 2,2 0 0 1 2,2 2,2 0 0 1 -2,2 2,2 0 0 1 -2,-2 2,2 0 0 1 2,-2 z"/>
 <path style="opacity:0.2;fill:#f4f4f7" d="M 24 4 A 20 20 0 0 0 4 24 A 20 20 0 0 0 4.0214844 24.582031 A 20 20 0 0 1 24 5 A 20 20 0 0 1 43.978516 24.417969 A 20 20 0 0 0 44 24 A 20 20 0 0 0 24 4 z"/>
</svg>
